src/components/content/Icon/functional/preventing-problem-food.svg

<svg width="100" height="100" viewBox="0 0 100 100" fill="none" xmlns="http://www.w3.org/2000/svg">
<path d="M68.4721 65.0321C68.3596 64.9644 68.2348 64.9195 68.105 64.9001C67.9751 64.8806 67.8427 64.887 67.7153 64.9187C67.5878 64.9505 67.4679 65.007 67.3624 65.0852C67.2568 65.1633 67.1677 65.2615 67.1001 65.3741C65.7321 67.646 63.9701 69.7621 61.8621 71.66C59.4321 73.848 56.1161 74.562 53.2081 73.5301C52.6881 73.3441 52.1981 73.112 51.7581 72.848C51.3586 72.605 50.8998 72.477 50.4321 72.4781H50.4061C49.9381 72.4661 49.4661 72.5921 49.0441 72.8401L49.0261 72.8521C48.5715 73.1315 48.0872 73.3596 47.5821 73.5321C44.6721 74.5661 41.3561 73.8501 38.9261 71.6641C29.6181 63.2801 29.5541 53.0721 30.3441 47.7341C30.6481 45.6661 31.4341 43.8301 32.6141 42.4181C36.5221 37.7381 43.1381 38.9121 46.7341 40.0301C47.2621 40.1941 47.8221 39.8981 47.9861 39.3721C48.1501 38.8441 47.8561 38.2841 47.3281 38.1201C37.8421 35.1741 33.0761 38.7441 31.0801 41.1361C29.6621 42.8281 28.7241 45.0101 28.3641 47.4421C27.5161 53.1761 27.5861 64.1421 37.5861 73.1501C39.6541 75.0121 42.2601 76.0001 44.8621 76.0001C46.0041 76.0001 47.1441 75.8101 48.2401 75.4201C48.8841 75.1981 49.4981 74.9101 50.0621 74.562C50.1561 74.5081 50.2541 74.48 50.3481 74.48H50.4281C50.5001 74.48 50.6061 74.494 50.7161 74.5601C51.2741 74.896 51.8841 75.184 52.5321 75.416C56.1341 76.696 60.2201 75.8281 63.1961 73.1501C65.4521 71.1181 67.3401 68.8501 68.8101 66.4081C69.0941 65.9341 68.9421 65.32 68.4681 65.0361L68.4721 65.0321ZM78.2421 58.2901C78.187 58.1708 78.1089 58.0635 78.0124 57.9744C77.9158 57.8853 77.8026 57.8162 77.6793 57.7708C77.5559 57.7255 77.4249 57.705 77.2936 57.7103C77.1623 57.7157 77.0334 57.7468 76.9141 57.8021L71.5301 60.2901C73.0721 55.2081 72.8781 50.5321 72.4221 47.4461C72.0701 45.0201 71.1321 42.8381 69.7081 41.1381C64.2661 34.6221 54.7061 37.5781 51.6121 38.7741C50.8821 36.7841 49.4381 31.9541 51.2301 28.8461C52.0941 27.3461 53.6721 26.4141 55.9241 26.0701C56.5521 27.0521 57.8501 29.4521 57.2441 31.7001C56.8161 33.2881 55.4621 34.5581 53.2241 35.4741C53.1025 35.5236 52.9919 35.5968 52.8986 35.6892C52.8053 35.7816 52.7312 35.8916 52.6804 36.0127C52.6297 36.1339 52.6034 36.2638 52.603 36.3952C52.6026 36.5265 52.6281 36.6566 52.6781 36.7781C52.7787 37.0233 52.9726 37.2186 53.2171 37.321C53.4616 37.4234 53.7368 37.4245 53.9821 37.3241C56.8301 36.1601 58.5761 34.4421 59.1761 32.2181C60.2141 28.3701 57.3201 24.5481 57.1961 24.3881C57.0922 24.2526 56.9552 24.1462 56.7983 24.0789C56.6414 24.0117 56.4699 23.9859 56.3001 24.0041C53.0601 24.3401 50.7721 25.6341 49.4961 27.8501C46.6981 32.7121 50.0061 40.1801 50.1481 40.4961C50.2027 40.617 50.2809 40.7258 50.378 40.8162C50.4752 40.9065 50.5895 40.9765 50.7141 41.0221C50.9661 41.1161 51.2441 41.1021 51.4881 40.9881C51.5161 40.9741 54.3921 39.6361 57.9341 39.1881C62.4621 38.6141 65.9081 39.7001 68.1781 42.4181C69.3641 43.8361 70.1501 45.6721 70.4481 47.7321C70.8841 50.6821 71.0621 55.1881 69.5121 60.048L66.8701 53.9701C66.7642 53.727 66.566 53.5359 66.3193 53.4388C66.0726 53.3417 65.7974 53.3464 65.5541 53.4521C65.3111 53.558 65.12 53.7561 65.0229 54.0029C64.9258 54.2496 64.9305 54.5248 65.0361 54.7681L68.5101 62.7621C68.5884 62.9405 68.7168 63.0924 68.8798 63.1993C69.0428 63.3062 69.2333 63.3634 69.4281 63.3641C69.5721 63.3641 69.7141 63.334 69.8481 63.272L77.7601 59.6161C77.8794 59.5609 77.9867 59.4829 78.0758 59.3863C78.1648 59.2897 78.234 59.1765 78.2793 59.0532C78.3247 58.9299 78.3452 58.7988 78.3399 58.6675C78.3345 58.5362 78.3033 58.4073 78.2481 58.2881L78.2421 58.2901Z" fill="#0B301A"/>
</svg>

<svg xmlns="http://www.w3.org/2000/svg" width="100" height="100" fill="none" viewBox="0 0 100 100"><path fill="#0b301a" d="M68.472 65.032a1 1 0 0 0-1.372.342c-1.368 2.272-3.13 4.388-5.238 6.286-2.43 2.188-5.746 2.902-8.654 1.87a8 8 0 0 1-1.45-.682 2.54 2.54 0 0 0-1.326-.37h-.026a2.57 2.57 0 0 0-1.362.362l-.018.012q-.684.421-1.444.68c-2.91 1.034-6.226.318-8.656-1.868-9.308-8.384-9.372-18.592-8.582-23.93.304-2.068 1.09-3.904 2.27-5.316 3.908-4.68 10.524-3.506 14.12-2.388a1.001 1.001 0 0 0 .594-1.91c-9.486-2.946-14.252.624-16.248 3.016-1.418 1.692-2.356 3.874-2.716 6.306-.848 5.734-.778 16.7 9.222 25.708C39.654 75.012 42.26 76 44.862 76c1.142 0 2.282-.19 3.378-.58a9 9 0 0 0 1.822-.858.6.6 0 0 1 .286-.082h.08c.072 0 .178.014.288.08.558.336 1.168.624 1.816.856 3.602 1.28 7.688.412 10.664-2.266 2.256-2.032 4.144-4.3 5.614-6.742a1 1 0 0 0-.342-1.372zm9.77-6.742a1 1 0 0 0-1.328-.488L71.53 60.29c1.542-5.082 1.348-9.758.892-12.844-.352-2.426-1.29-4.608-2.714-6.308-5.442-6.516-15.002-3.56-18.096-2.364-.73-1.99-2.174-6.82-.382-9.928.864-1.5 2.442-2.432 4.694-2.776.628.982 1.926 3.382 1.32 5.63-.428 1.588-1.782 2.858-4.02 3.774a.997.997 0 0 0-.546 1.304 1 1 0 0 0 1.304.546c2.848-1.164 4.594-2.882 5.194-5.106 1.038-3.848-1.856-7.67-1.98-7.83a1 1 0 0 0-.896-.384c-3.24.336-5.528 1.63-6.804 3.846-2.798 4.862.51 12.33.652 12.646a1 1 0 0 0 1.34.492c.028-.014 2.904-1.352 6.446-1.8 4.528-.574 7.974.512 10.244 3.23 1.186 1.418 1.972 3.254 2.27 5.314.436 2.95.614 7.456-.936 12.316L66.87 53.97a1 1 0 0 0-1.834.798l3.474 7.994a1.007 1.007 0 0 0 1.338.51l7.912-3.656a1 1 0 0 0 .488-1.328z"/></svg>
